X:18006
T:Rights of Man, The
R:Hornpipe
C:Trad.
O:Ireland
Z:Paul Hardy after Greenshoots
M:4/4
L:1/8
Q:1/4=120
K:Em
GA|"Em"Bc AB GA FG|EFGA B2ef|gfed edBd|"D"cBAG A2GA|
"Em"(3BcB (3ABA (3GAG (3FGF|EFGA B2ef|gfed "Bm"Bgfg|"Em"e2 E2 E2:|
|:ga|"Em"bgbg efga|bgbg egfe|"D"d2 d^c defg|afdf a2 gf|
"Em"edef gfga|bgaf gfed|gfed "Bm"Bgfg|"Em"e2 E2 E2:|

